X:0031
T:Wood Nunrich fair
M:6/8
L:1/8
Q:3/8=120
I: :: :: ||
Z:Jack Campin * www.campin.me.uk * 2009
K:G
c|BGB def|gfe dcB|cAA eAA|cAA A2
c|BGB def|gfe dcB|cAg fgf|gdB G2:|
c|BGG d2B|cAA e2c|BGB d2f|ecA A2
c|BGB d2B|cAA e2c|BGB def|gdB G2:|
d|gfe dcB|gfg dcB|gfe dcB|cAA A2
d|gfe dcB|gfg dcB|cAg fgf|gdB G2:|
<end>
<start>
